X:1
T:Title
%%score 1 { 2 | 3 }
L:1/8
Q:1/4=82
M:4/4
K:Db
V:1 treble nm="Grand Piano, Soprano"
V:2 treble nm="Choir Pad, Bass"
V:3 bass 
V:1
 [FA][FA][FB][FB] [Fd][Gd]- [Gd]/[Gc]/[Gc] | [Fd][Ge][Ec][CA] [EG] .[DF]3 | %2
w: By~Edmund~Simon~Lorenz * * * * * * * *||
 [DF][EF][E=A][Ec] [Fd][Ec]- [Ec]/[DB]/[DB] | [Fd][Fd][Fd][Ec] [DB] .[CA]3 | %4
w: ||
 [FA][EG][FA][Ac] [GB][GB][FA][FA] | [F=A][GB]- [GB]/[DG]/[B,D] [B,E] .[CF]3 | %6
w: ||
 [EF][DF][DB][Ec] [Fd][Ge][Gd][_Fc] | [_FB][=FA][Fd][DF]- [DF]/[CE]/ D2 [Fd] | %8
w: ||
 [FA][Gd]- [Gd]/[Gc]/[Gc] [GB] [Gc]2 [Gc] | [EG][FB]- [FB]/[FA]/[FA] [_F=G] .[=FA]3 | %10
w: ||
 [FA][GB][Ac][Bd] [GB][=Ge][Gd][Gc] |[Q:1/4=75] [=GB][Fd]- [Fd]/[FA]/[EA] [_GA] [FA]3- | %12
w: ||
 [FA]4 z4 |] %13
w: |
V:2
 A,DDD A,[K:bass]A,- A,/A,/A, | A,A,A,A, A, .A,3 | A,=A,CA, F,F,- F,/F,/F, | =A,=G,G,G, E, .E,3 | %4
 A,A,A,A,[K:treble] CDDD | DD- D/[K:bass]B,/G, B, .=A,3 | =A,B,B,B, B,B,B,C | %7
 CDA,A,- A,/G,/ F,2 A, | A,A,- A,/A,/A, A, A,2[K:treble] E | CD- D/D/D B, .A,3 | DDDD DDB,E | %11
 DD- D/[K:bass]D/C B, A,3- | A,4 z4 |] %13
V:3
 D,D,D,D, D,E,- E,/E,/E, | D,A,,A,,A,, A,, .D,3 | D,F,F,F, z B,,- B,,/B,,/B,, | B,,E,E,E, z .A,,3 | %4
 A,,A,,A,,A,, A,,D,D,D, | D,G,- G,<.G, G, .F,3 | .F,2 z2 z G,G,=G, | =G,A, z A,,- A,,/A,,/ D,2 D, | %8
 D,E,- E,/E,/E, E, E,2 A,, | A,,D,- D,/D,/D, D, .D,3 | D,G,G,G, G,E,E,E, | %11
 E,A,- A,/A,/A,, A,, D,3- | D,4 z4 |] %13

